svgs/sharp-light/mobile-notch.svg

<svg xmlns="http://www.w3.org/2000/svg" viewBox="0 0 384 512"><!--! Font Awesome Pro 6.6.0 by @fontawesome - https://fontawesome.com License - https://fontawesome.com/license (Commercial License) Copyright 2024 Fonticons, Inc. --><path d="M256 32l0 32 0 16-16 0-96 0-16 0 0-16 0-32L64 32l0 448 256 0 0-448-64 0zm-32 0l-64 0 0 16 64 0 0-16zM32 0L64 0 320 0l32 0 0 32 0 448 0 32-32 0L64 512l-32 0 0-32L32 32 32 0z"/></svg>

<svg xmlns="http://www.w3.org/2000/svg" viewBox="0 0 384 512"><!--! Font Awesome Pro 6.4.0 by @fontawesome - https://fontawesome.com License - https://fontawesome.com/license (Commercial License) Copyright 2023 Fonticons, Inc. --><path d="M256 32V64 80H240 144 128V64 32H64V480H320V32H256zm-32 0H160V48h64V32zM32 0H64 320h32V32 480v32H320 64 32V480 32 0z"/></svg>
